src/dark/hiso font dark_27F6.svg

<svg xmlns="http://www.w3.org/2000/svg" width="135" height="126" viewBox="0 0 135 126"><path fill="#000101" d="M45 27v18l-36 18v36l36 18 18-9 18 9 36-54-72-36zm3 4.85l31.5 15.75v12.98l-31.5-15.75v-12.98zm-1.32 15.66l30.97 15.49-32.65 16.33-30.97-15.49 32.65-16.33zm-34.68 49.64v-30.97l31.5 15.75v30.97l-31.5-15.75zm54.359 9.17l13.141-6.57v13.15l-13.141-6.58z"/></svg>

<svg xmlns="http://www.w3.org/2000/svg" width="135" height="126"><path fill="#000101" d="M45 27v18L9 63v36l36 18 18-9 18 9 36-54-72-36zm3 4.85L79.5 47.6v12.98L48 44.83V31.85zm-1.32 15.66L77.65 63 45 79.33 14.03 63.84l32.65-16.33zM12 97.15V66.18l31.5 15.75v30.97L12 97.15zm54.359 9.17L79.5 99.75v13.15l-13.141-6.58z"/></svg>
